shared/images/iconfont/46-kb-iconfont-identity-devices-16.svg

<?xml version="1.0" encoding="UTF-8"?>
<svg width="16px" height="16px" viewBox="0 0 16 16" version="1.1" xmlns="http://www.w3.org/2000/svg" xmlns:xlink="http://www.w3.org/1999/xlink">
    <!-- Generator: sketchtool 57.1 (101010) - https://sketch.com -->
    <title>89600FD5-6E6A-4D87-939C-4107CED51D05</title>
    <desc>Created with sketchtool.</desc>
    <g id="Symbols" stroke="none" stroke-width="1" fill="none" fill-rule="evenodd">
        <g id="46-kb-iconfont-identity-devices-16">
            <g>
                <rect id="icon-area" opacity="0" x="0" y="0" width="16" height="16"></rect>
                <path d="M11.3333333,0 L4.66666667,0 C3.194,0 2,1.194 2,2.66666667 L2,13.3333333 C2,14.806 3.194,16 4.66666667,16 L11.3333333,16 C12.806,16 14,14.806 14,13.3333333 L14,2.66666667 C14,1.194 12.806,0 11.3333333,0 Z M9.33333333,14.6666667 L6.66666667,14.6666667 C6.3,14.6666667 6,14.3666667 6,14 C6,13.6333333 6.3,13.3333333 6.66666667,13.3333333 L9.33333333,13.3333333 C9.7,13.3333333 10,13.6333333 10,14 C10,14.3666667 9.7,14.6666667 9.33333333,14.6666667 Z M12,12 L4,12 L4,3 L12,3 L12,12 Z" id="phone" fill="#000000"></path>
            </g>
        </g>
    </g>
</svg>

<svg xmlns="http://www.w3.org/2000/svg" width="16" height="16" viewBox="0 0 16 16">
    <path fill="#000" fill-rule="evenodd" d="M11.333 0H4.667A2.667 2.667 0 0 0 2 2.667v10.666A2.667 2.667 0 0 0 4.667 16h6.666A2.667 2.667 0 0 0 14 13.333V2.667A2.667 2.667 0 0 0 11.333 0zm-2 14.667H6.667A.669.669 0 0 1 6 14c0-.367.3-.667.667-.667h2.666c.367 0 .667.3.667.667 0 .367-.3.667-.667.667zM12 12H4V3h8v9z"/>
</svg>
